X:1
T:I Love Him Because He First Loved Me
T:J. E. Sturgis
T:I Love Him Because He First Loved Me
T:Public Domain
T:Public Domain
C:J. E. Sturgis
Z:Public Domain
%%score ( 1 2 ) ( 3 4 )
L:1/8
M:6/4
K:Bb
V:1 treble 
V:2 treble 
V:3 bass 
V:4 bass 
V:1
 [DF]2 | [DF]2 [B,D]2 [CE]2 [DF]4 [Fd]2 | [=Ed]4 [Ec]2 [EG]4 [EB]2 | %3
w: 1.~Christ|Je- sus my Lord from|Heav- en came, To|
w: 2.~He|sweat drops of blood in|prayer for me, Heart-|
w: 3.~Up|Cal- va- ry’s hill the|cross He bore, And|
w: 4.~My|Lord who was slain by|sin- ful man, A|
 [EA]2 [CE]2 [DF]2 [EG]4 [EA]2 | [DG]4 [D_G]2 [DF]4 [DF]2 | [C^F]2 [CF]2 [CF]2 [DG]4 [DG]2 | %6
w: save me from guilt and|sin and shame; His|death on the cross of|
w: brok- en in dark Geth-|se- ma- ne. While|an- gels from bless- èd|
w: for me a crown of|thorns He wore; They|nailed Him up- on the|
w: won- der- ful friend to|me has been; He|rose from the tomb with|
 [DA]4 [DA]2 [DB]4 [F=B]2 | [=Ec]2 [EG]2 [EA]2 [EB]4 [EG]2 | [FA]4 [=EB]2 [_Ec]4 || %9
w: Cal- va- ry Brought|par- don and gave me|li- ber- ty.|
w: realms of light Gave|strength to His ach- ing|heart that night.|
w: tree to die, Then|dark- ness came o- ver|earth and sky.|
w: vic- to- ry, And|now I love Him who|first loved me.|
"^Refrain" [EF]2 | [Dd]2 [DA]2 [Dc]2 [DB]4 [DG]2 | [EB]4 [EA]2 [EA]4 [EB]2 | %12
w: |||
w: I|love Him be- cause He|first loved me, He|
w: |||
w: |||
 [EA]4 [EG]2 [EG]4 [EA]2 | [DG]4 [DF]2 [DF]4 [DF]2 | [Fd]2 [Fd]2 [FG]2 [Ge]4 [Fd]2 | %15
w: |||
w: first loved me, He|first loved me; I|love Him be- cause He|
w: |||
w: |||
 [=Ed]4 [Ec]2 [EG]4 [EG]2 | F2 [FB]2 [Ge]2 [Fd]4 [DB]2 | [Ec]4 [DB]2 [DB]4 |] %18
w: |||
w: first loved me, And|died on the cross of|va- ry. *|
w: |||
w: |||
V:2
 x2 | x12 | x12 | x12 | x12 | x12 | x12 | x12 | x10 || x2 | x12 | x12 | x12 | x12 | x12 | x12 | %16
w: ||||||||||||||||
w: ||||||||||||||||
 F2 x10 | x10 |] %18
w: ||
w: Cal-||
V:3
 [B,,B,]2 | [B,,B,]2 [B,,F,]2 [B,,F,]2 [B,,B,]4 [B,,B,]2 | [C,G,]4 [C,G,]2 [C,B,]4 [C,G,]2 | %3
 [F,A,]2 [F,A,]2 [F,B,]2 [F,A,]4 [F,C]2 | [B,,B,]4 [B,,B,]2 [B,,B,]4 [B,,B,]2 | %5
 [D,A,]2 [D,A,]2 [D,A,]2 [G,B,]4 [G,B,]2 | [^F,A,]4 [F,A,]2 G,4 G,2 | %7
 [C,G,]2 [C,B,]2 [C,A,]2 [C,G,]4 [C,B,]2 | [F,C]4 [G,C]2 [F,A,]4 || F,2 | %10
 [B,,F,]2 [B,,F,]2 [B,,F,]2 [B,,F,]4 [B,,B,]2 | [C,G,]4 F,2 [F,C]4 [F,C]2 | %12
 [F,C]4 [F,A,]2 [F,A,]4 [F,C]2 | [B,,B,]4 [B,,B,]2 B,4 [_A,B,]2 | %14
 [G,=B,]2 [G,B,]2 [G,B,]2 [G,C]4 [G,B,]2 | [C,B,]4 [C,B,]2 [C,B,]4 [^C,B,]2 | %16
 [D,B,]2 [D,B,]2 [E,B,]2 [F,B,]4 [F,B,]2 | [F,A,]4 [B,,F,]2 [B,,F,]4 |] %18
V:4
 x2 | x12 | x12 | x12 | x12 | x12 | x6 G,4 G,2 | x12 | x10 || F,2 | x12 | x4 F,2 x6 | x12 | %13
 x6 B,4 x2 | x12 | x12 | x12 | x10 |] %18

